svgs/sharp-light/option.svg

<svg xmlns="http://www.w3.org/2000/svg" viewBox="0 0 640 512"><!--! Font Awesome Pro 6.6.0 by @fontawesome - https://fontawesome.com License - https://fontawesome.com/license (Commercial License) Copyright 2024 Fonticons, Inc. --><path d="M464 448l-7.6 0-4.8-5.9L168.4 96 16 96 0 96 0 64l16 0 160 0 7.6 0 4.8 5.9L471.6 416 624 416l16 0 0 32-16 0-160 0zM432 96l-16 0 0-32 16 0 192 0 16 0 0 32-16 0L432 96z"/></svg>

<svg xmlns="http://www.w3.org/2000/svg" viewBox="0 0 640 512"><!--! Font Awesome Pro 6.4.0 by @fontawesome - https://fontawesome.com License - https://fontawesome.com/license (Commercial License) Copyright 2023 Fonticons, Inc. --><path d="M464 448h-7.6l-4.8-5.9L168.4 96H16 0V64H16 176h7.6l4.8 5.9L471.6 416H624h16v32H624 464zM432 96H416V64h16H624h16V96H624 432z"/></svg>
